!!!COM: Palestrina, Giovanni Perluigi da
!!!OPR: Missa Jesu Nostra Redemptio
!!!OMD: Gloria
!!!OTL: First Section
**kern	**kern	**kern	**kern
*Ibass	*Itenor	*Icalto	*Icant
!Bassus	!Tenor	!Altus	!Cantus
*clefF4	*clefGv2	*clefG2	*clefG2
*k[]	*k[]	*k[]	*k[]
*E:phr	*E:phr	*E:phr	*E:phr
*M4/2	*M4/2	*M4/2	*M4/2
=1	=1	=1	=1
1.F	0r	1r	0r
.	.	[1c	.
2F	.	.	.
=2	=2	=2	=2
2E	0r	2c]	0r
2F	.	2c	.
2G	.	2B	.
2A	.	2c	.
=3	=3	=3	=3
2.G	0r	2d	0r
.	.	2e	.
4G	.	.	.
2F	.	2.d	.
2D	.	.	.
.	.	4d	.
=4	=4	=4	=4
2E	0r	2c	0r
2F	.	2A	.
4E	.	2B	.
4D	.	.	.
4E	.	2c	.
4F	.	.	.
=5	=5	=5	=5
1G	0r	2B	0r
.	.	1e	.
1F	.	.	.
.	.	2d	.
=6	=6	=6	=6
1E	2r	0e	1r
.	2G	.	.
1r	2A	.	2r
.	[2c	.	2g
=7	=7	=7	=7
0r	4c]	2r	2a
.	4B	.	.
.	2A	2c	2cc
.	2G	2d	2b
.	4F	2f	[2a
.	4G	.	.
=8	=8	=8	=8
0r	4A	2e	2a]
.	4B	.	.
.	1c	1e	2g
.	.	.	[1g
.	2B	2d	.
=9	=9	=9	=9
0r	2c	2e	2g]
.	2F	2.d	2f
.	1A	.	2e
.	.	4c	.
.	.	[2c	4d
.	.	.	4c
=10	=10	=10	=10
1r	1G	2c]	1d
.	.	2B	.
2r	2r	2c	2c
[2F	[2c	[2f	[2a
=11	=11	=11	=11
2F]	2c]	2f]	2a]
2F	2c	2f	2a
2D	2d	2f	2a
2D	2d	2f	2a
=12	=12	=12	=12
2E	2B	2e	2g#
2E	2B	2e	2g#
2AA	2c	2e	2a
2D	2d	2f	2a
=13	=13	=13	=13
2.C	1G	1.e	1.cc
4BB	.	.	.
2AA	1A	.	.
2D	.	2f#	2a
=14	=14	=14	=14
1GG	0G	2g	0b
.	.	2.d	.
2r	.	.	.
.	.	4d	.
[2G	.	2e	.
=15	=15	=15	=15
4G]	0r	2d	0r
4G	.	.	.
2A	.	2c	.
2G	.	2B	.
2F	.	4A	.
.	.	4B	.
=16	=16	=16	=16
2E	1r	4c	0r
.	.	4d	.
4C	.	4e	.
4D	.	4f	.
4E	2.G	4g	.
4F	.	4f	.
4G	.	[2e	.
4E	4G	.	.
=17	=17	=17	=17
2F	2A	2e]	1r
2G	2B	2d	.
1C	1c	1e	2.g
.	.	.	4g
=18	=18	=18	=18
0r	2c	1r	2a
.	2B	.	2b
.	1A	2.c	1cc
.	.	4c	.
=19	=19	=19	=19
0r	1G	2d	2cc
.	.	2e	2b
.	1F	1f	[1a
=20	=20	=20	=20
0r	2F	2e	2a]
.	2C	2d	2g
.	1D	1d	1f
=21	=21	=21	=21
2r	1A	1c#	2e
2A	.	.	2e
2D	2r	2r	2f
2E	2G	2e	2g
=22	=22	=22	=22
1F	2c	2.A	1a
.	2d	.	.
.	.	4B	.
1E	2e	2c	1g
.	2e	2B	.
=23	=23	=23	=23
2F#	2d	2A	2a
2G	2d	4G	2b
.	.	2g	.
1A	1c	.	1cc
.	.	8f	.
.	.	8e	.
.	.	2f#	.
=24	=24	=24	=24
1G	2d	2g	2b
.	1G	1g	1b
1r	.	.	.
.	2A	2e	2cc
=25	=25	=25	=25
0r	1F	1f	1a
.	2c	2e	2g
.	2A	2f	2a
=26	=26	=26	=26
1r	2c	2e	2g
.	2d	2d	2f
2r	2A	1e	[1e
[2A	[2c	.	.
=27	=27	=27	=27
4A]	4c]	0r	0e]
4A	4c	.	.
2G#	2B	.	.
1A	1c	.	.
=28	=28	=28	=28
2F#	2A	0r	0r
2G	2B	.	.
2E	2c	.	.
[2F	[2d	.	.
=29	=29	=29	=29
4F]	4d]	0r	0r
4E	4c	.	.
4E	1c	.	.
8D	.	.	.
8C	.	.	.
2D	.	.	.
2D	2B	.	.
=30	=30	=30	=30
1C	2c	0e	0g
.	1c	.	.
1E	.	.	.
.	2B	.	.
=31	=31	=31	=31
2.F	2.A	1c	0a
4E	4G	.	.
1D	4F	1f	.
.	4E	.	.
.	[2A	.	.
=32	=32	=32	=32
2.C	4A]	1.e	0cc
.	4G	.	.
.	1G	.	.
4BB	.	.	.
1AA	.	.	.
.	2F#	4d	.
.	.	4c	.
=33	=33	=33	=33
1GG	1G	2e	0b
.	.	2d	.
2r	2r	[1d	.
[2G	[2B	.	.
=34	=34	=34	=34
4G]	4B]	1d]	0r
4G	4B	.	.
2F#	2A	.	.
2G	2B	1r	.
2E	2c	.	.
=35	=35	=35	=35
2F	2A	1r	1r
2G	2B	.	.
1A	2c	2r	2r
.	2d	[2c	[2a
=36	=36	=36	=36
1E	1e	4c]	4a]
.	.	4c	4a
.	.	2B	2g#
2r	1A	2c	2a
2D	.	2A	2f#
=37	=37	=37	=37
2G	0r	2B	2g
2F	.	2c	2a
4D	.	1d	1f
4E	.	.	.
4F	.	.	.
4G	.	.	.
=38	=38	=38	=38
1A	2r	2c	2.e
.	1c	1e	.
.	.	.	4f
1r	.	.	1g
.	2B	2d	.
=39	=39	=39	=39
2r	4A	4c	0r
.	4G	4B	.
1A	4A	4c	.
.	4B	4d	.
.	2c	1e	.
2G	[2B	.	.
=40	=40	=40	=40
1F	4B]	4d	0r
.	4A	4c	.
.	1A	4c	.
.	.	8B	.
.	.	8A	.
1E	.	1B	.
.	2G#	.	.
=41	=41	=41	=41
1AA	1A	2A	2r
.	.	1e	1cc
2C	1r	.	.
2GG	.	2d	2b
=42	=42	=42	=42
2AA	1.e	4c	4a
.	.	4B	4g
1AA	.	4c	4a
.	.	4d	4b
.	.	4e	2cc
.	.	4f	.
2BB	2d	2g	[2b
=43	=43	=43	=43
2.C	1c	0e	4b]
.	.	.	4a
.	.	.	1a
4D	.	.	.
1E	1B	.	.
.	.	.	2g#
=44	=44	=44	=44
0AA	0A	0c#	0a
=45	=45	=45	=45
1A	1c#	1e	1a
1D	1d	1f	1a
=46	=46	=46	=46
1E	1B	1e	1g#
1A	1c	1e	1a
=47	=47	=47	=47
2G	2d	2g	2b
2G	2d	2g	2b
1C	1e	1g	1cc
=48	=48	=48	=48
1G	2d	1g	1b
.	1d	.	.
1r	.	2f	[1a
.	2c#	2e	.
=49	=49	=49	=49
0r	2d	2f	1a]
.	2c	2e	.
.	1B-	1d	1g
=50	=50	=50	=50
2r	2A	2e	0a
1D	1F	1d	.
2C#	2E	2e	.
=51	=51	=51	=51
2D	2D	2f	1a
2C	2E	2e	.
1BB-	2F	2.d	[1dd
.	2G	.	.
.	.	4e	.
=52	=52	=52	=52
1AA	1A	2f	2dd]
.	.	2e	2cc#
1A	1c#	2r	2r
.	.	2e	2a
=53	=53	=53	=53
1D	1d	1f	1a
1E	1B	1e	1g#
=54	=54	=54	=54
1A	1c	1e	1a
2G	2d	2g	2b
2G	2d	2g	2b
=55	=55	=55	=55
1C	1e	1g	1cc
2GG	1d	1g	1b
[2G	.	.	.
=56	=56	=56	=56
2G]	2r	2r	2r
2G	1d	1g	1b
[1G	.	.	.
.	2d	2g	2b
=57	=57	=57	=57
1G]	1d	1g	1b
1C	1e	[1g	1cc
=58	=58	=58	=58
1D	1d	2g]	2b
.	.	2f	1a
1E	2c	1e	.
.	2B	.	2g
=59	=59	=59	=59
2AA	2A	2e	2.cc
1C	2G	1e	.
.	.	.	4b
.	2.c	.	2a
2C	.	2e	2g
.	4B	.	.
=60	=60	=60	=60
0D	2A	0d	2f#
.	2G	.	1g
.	1A	.	.
.	.	.	2f#
=61	=61	=61	=61
0GG	1B	1d	1g
.	2r	2r	2r
.	[2G	2d	[2b
=62	=62	=62	=62
0r	2G]	1e	2b]
.	1A	.	1cc
.	.	2c	.
.	2F	2f	2a
=63	=63	=63	=63
0r	2G	2.e	2b
.	2.A	.	2.cc
.	.	4e	.
.	.	1e	.
.	4A	.	4cc
.	2G	.	2b
=64	=64	=64	=64
0r	2F	2.f	2.a
.	2.D	.	.
.	.	4e	4g
.	.	1d	1f
.	4E	.	.
.	4F	.	.
.	4G	.	.
=65	=65	=65	=65
1.AA	2A	2c	1e
.	2c	4A	.
.	.	4B	.
.	2A	4c	1cc
.	.	4d	.
2AA	[2c	[2e	.
=66	=66	=66	=66
1AA	4c]	2e]	2a
.	4B	.	.
.	1A	2e	1cc
1E	.	1e	.
.	2G#	.	2b
=67	=67	=67	=67
0F	0A	1c	0a
.	.	1d	.
*-	*-	*-	*-
!!!CDT: 1525/^1526/-1594/2/2
!!!OCY: Italia
!!!AGN: Mass (Paraphrase)
!!!AST: renaissance, vocal
!!!ASW: Hymn
!!!PWK: Masses, Book 4
!!!RNB: Cadence finals: C,A
!!!YOR: Le Opere Complete, v. 10, p. 38
!!!YOO: Rome, Italy: Fratelli Scalera
!!!END: 1992//
!!!EED: John Miller
!!!YEC: Copyright 2000, John Miller
!!!YEN: United States of America
!!!YEM: Rights to all derivative electronic formats reserved.
!!!YEM: Refer to licensing agreement for further details.
!!!YEM: This file must be accompanied by the licensing agreement.
!!!YEM: A copy of the licensing agreement may be found at http://www.music-cog.ohio-state.edu/HumdrumDatabases/Palestrina/license.txt
!!!EMD: converted to Humdrum by Bret Aarden
